!!!COM:	la Rue, Pierre de
!!!CDT:	~1452///-1518/11/20
!!!OTL:	Trop plus secret
!!!AGN:	Song; Chanson
!!!SCT:	Rue3024
!!!SCA:	Rue3024
!!!voices:	4
**kern	**kern	**kern	**kern
*staff4	*staff3	*staff2	*staff1
*Ivox	*Ivox	*Ivox	*Ivox
*I"Baricanor	*I"Tenor	*I"Contra	*I"Discantus
*I'Bc	*I'T	*I'C	*I'D
*clefF4	*clefGv2	*clefGv2	*clefG2
*k[]	*k[]	*k[]	*k[]
*M2/1	*M2/1	*M2/1	*M2/1
*met(C|)	*met(C|)	*met(C|)	*met(C|)
=1-	=1-	=1-	=1-
0r	0r	1d	0r
.	.	[1f	.
=2	=2	=2	=2
0r	0r	2f\]	0r
.	.	4e\	.
.	.	4d\	.
.	.	2e\	.
.	.	[2d\	.
=3	=3	=3	=3
0r	0r	2d\]	1a
.	.	4c\	.
.	.	4B\	.
.	.	[1A	[1cc
=4	=4	=4	=4
0r	0r	1A]	2cc\]
.	.	.	4b\
.	.	.	4a/
.	.	[1d	2b\
.	.	.	[2a/
=5	=5	=5	=5
0r	0r	2d\]	2a/]
.	.	2d\	4g/
.	.	.	4f/
.	.	2c\	1e
.	.	2B\	.
=6	=6	=6	=6
1D	0r	2A/	1r
.	.	2G/	.
2D\	.	1F	[1a
[2F\	.	.	.
=7	=7	=7	=7
2F\]	0r	2r	2a/]
4E\	.	2F/	2a/
4D\	.	.	.
2E\	.	2G/	2g/
[2D\	.	2A/	[2f/
=8	=8	=8	=8
2D\]	1A	1D	2f/]
4C/	.	.	4e/
4BB/	.	.	4d/
[1AA	[1c	[1E	1c
=9	=9	=9	=9
1AA]	2c\]	1E]	2r
.	4B\	.	2c/
.	4A/	.	.
[1D	2B\	1D	2.d/
.	[2A/	.	.
.	.	.	4e/
=10	=10	=10	=10
2D\]	2A/]	0r	2f/
2D\	4G/	.	2g/
.	4F/	.	.
2C/	[1E	.	2a/
2BB/	.	.	2b\
=11	=11	=11	=11
2AA/	1E]	1r	1.cc
2GG/	.	.	.
[1FF	[1A	[1F	.
.	.	.	4b\
.	.	.	4a/
=12	=12	=12	=12
1FF]	2A/]	2F/]	1cc
.	2A/	2F/	.
2r	2G/	2G/	2b\
2FF/	2F/	2A/	2a/
=13	=13	=13	=13
1GG	2E/	1G	4b\
.	.	.	4a/
.	2D/	.	4g/
.	.	.	4f/
2.AA/	1C	2r	2e/
.	.	2E/	[2a/
4GG/	.	.	.
=14	=14	=14	=14
2FF/	1c	2F/	2a/]
2EE/	.	1G	4g/
.	.	.	4f/
2GG/	2B\	.	4e/
.	.	.	4d/
[2DD/	2A/	[2F/	[2f/
=15	=15	=15	=15
4DD/]	4B\	4F/]	4f/]
4EE/	4A/	4G/	4e/
2FF/	4G/	2A/	1d
.	4F/	.	.
2GG/	1E	2B\	.
2AA/	.	2A/	2c#i/
=16	=16	=16	=16
1DD	1D	2.F/	0d
.	.	4G/	.
2r	1r	1A	.
2D\	.	.	.
=17	=17	=17	=17
1.F	1A	0r	0r
.	[1c	.	.
2F\	.	.	.
=18	=18	=18	=18
2E\	2c\]	0r	0r
2C/	2c\	.	.
2D\	2B\	.	.
2BB/	2G/	.	.
=19	=19	=19	=19
0AA	2A/	1r	0r
.	2F/	.	.
.	1E	1e	.
=20	=20	=20	=20
0r	0r	1.f	1a
.	.	.	[1cc
.	.	2f\	.
=21	=21	=21	=21
0r	0r	2e\	2cc\]
.	.	2c\	2cc\
.	.	2d\	2b\
.	.	2B\	2g/
=22	=22	=22	=22
0r	1A	1.A	2a/
.	.	.	2f/
.	[1c	.	1e
.	.	4G/	.
.	.	4F/	.
=23	=23	=23	=23
2r	2c\]	1E	0r
2C/	2c\	.	.
2D\	2B\	1r	.
2BB/	2G/	.	.
=24	=24	=24	=24
0AA	2A/	1r	1r
.	2F/	.	.
.	1E	2r	2r
.	.	2c\	2e/
=25	=25	=25	=25
2r	0r	2d\	2f/
2GG/	.	2B\	2d/
2AA/	.	1A	1c
2FF/	.	.	.
=26	=26	=26	=26
0EE	1E	2r	1g
.	.	1B	.
.	2E/	.	2g/
.	2E/	[2c\	2g/
=27	=27	=27	=27
1r	1E	2c\]	1g
.	.	4B\	.
.	.	4A/	.
1EE	1G	1B	1g
=28	=28	=28	=28
1FF	1F	1A	1a
1DD	[1A	2r	1f
.	.	2A/	.
=29	=29	=29	=29
1.AA	2A/]	1.c	1e
.	2G/	.	.
.	1E	.	2r
4GG/	.	4B\	2e/
4FF/	.	4A/	.
=30	=30	=30	=30
0EE	2r	2G/	2g/
.	2E/	2G/	2g/
.	2G/	[1B	2g/
.	2G/	.	[2g/
=31	=31	=31	=31
0r	1G	2B\]	2g/]
.	.	2B\	4f/
.	.	.	4e/
.	1G	1d	1g
=32	=32	=32	=32
0r	2.A/	2c\	2f/
.	.	1B	1e
.	4G/	.	.
.	1F	.	.
.	.	2A/	2d/
=33	=33	=33	=33
1EE	0E	2B\	2e/
.	.	1e	2.g/
2GG/	.	.	.
.	.	.	4a/
2AA/	.	2e\	2cc\
=34	=34	=34	=34
2BB/	0r	4d\	2b\
.	.	4c\	.
2C/	.	4B\	1a
.	.	4A/	.
2D\	.	1B	.
2E\	.	.	2g#i/
=35	=35	=35	=35
0AA	2r	2A/	0a
.	2AA/	2.c\	.
.	2.C/	.	.
.	.	4d\	.
.	.	2f\	.
.	4D/	.	.
=36	=36	=36	=36
0r	2E/	2e\	4g/
.	.	.	4f/
.	2F/	1d	4e/
.	.	.	4d/
.	2G/	.	1e
.	2A/	2c#i\	.
=37	=37	=37	=37
0r	0D	1d	1d
.	.	2r	2r
.	.	[2f\	[2d/
=38	=38	=38	=38
0r	0r	2f\]	2d/]
.	.	4e\	4c/
.	.	4d\	4B/
.	.	2e\	2c/
.	.	[2d\	2d/
=39	=39	=39	=39
0r	0r	2d\]	1a
.	.	4c\	.
.	.	4B\	.
.	.	[1A	[1cc
=40	=40	=40	=40
0r	0r	1A]	2cc\]
.	.	.	4b\
.	.	.	4a/
.	.	[1d	2b\
.	.	.	[2a/
=41	=41	=41	=41
0r	0r	2d\]	2a/]
.	.	2d\	4g/
.	.	.	4f/
.	.	2c\	1e
.	.	2B\	.
=42	=42	=42	=42
1D	0r	2A/	1r
.	.	2G/	.
2D\	.	1F	[1a
[2F\	.	.	.
=43	=43	=43	=43
2F\]	0r	2r	2a/]
4E\	.	2F/	2a/
4D\	.	.	.
2E\	.	2G/	2g/
[2D\	.	2A/	[2f/
=44	=44	=44	=44
2D\]	1A	1D	2f/]
4C/	.	.	4e/
4BB/	.	.	4d/
[1AA	[1c	[1E	1c
=45	=45	=45	=45
1AA]	2c\]	1E]	2r
.	4B\	.	2c/
.	4A/	.	.
[1D	2B\	1D	2.d/
.	[2A/	.	.
.	.	.	4e/
=46	=46	=46	=46
2D\]	2A/]	0r	4f/
.	.	.	4g/
2D\	4G/	.	1a
.	4F/	.	.
2C/	[1E	.	.
2BB/	.	.	2b\
=47	=47	=47	=47
2AA/	1E]	1r	1.cc
2GG/	.	.	.
1FF	[1A	[1F	.
.	.	.	4b\
.	.	.	4a/
=48	=48	=48	=48
1FF	2A/]	2F/]	1cc
.	2A/	2F/	.
2r	2G/	2G/	2b\
2FF/	2F/	2A/	2a/
=49	=49	=49	=49
1GG	2E/	1G	4b\
.	.	.	4a/
.	2D/	.	4g/
.	.	.	4f/
2.AA/	1C	2r	2e/
.	.	2E/	[2a/
4GG/	.	.	.
=50	=50	=50	=50
2FF/	1c	2F/	2a/]
2EE/	.	1G	4g/
.	.	.	4f/
2GG/	2B\	.	4e/
.	.	.	4d/
[2DD/	2A/	[2F/	[2f/
=51	=51	=51	=51
4DD/]	4B\	4F/]	4f/]
4EE/	4A/	4G/	4e/
2FF/	4G/	2A/	1d
.	4F/	.	.
2GG/	1E	2B\	.
2AA/	.	[2A/	2c#i/
=52	=52	=52	=52
2DD/	0D	2A/]	2d/
2D\	.	2f\	2a/
2D\	.	2f\	2a/
[2GG/	.	[2d\	4b\
.	.	.	4a/
=53	=53	=53	=53
2GG/]	2r	2d\]	4g/
.	.	.	4f/
1AA	2A/	2.c\	4e/
.	.	.	4d/
.	2A/	.	4e/
.	.	4B\	4c/
2GG/	4B\	2B\	2d/
.	4A/	.	.
=54	=54	=54	=54
2C/	4G/	4c\	2e/
.	4F/	4B\	.
2D\	4E/	4A/	1d
.	4D/	4G/	.
1AA	1E	1A	.
.	.	.	2c#i/
=55	=55	=55	=55
0DDl	0Dl	0Al	0dl
==	==	==	==
*-	*-	*-	*-
!!!RDF**kern: l=long note in original notation
!!!RDF**kern: i=editorial accidental
!!!ENC:	Chris Gage 06-17-2013
!!!END:	2013/08/08/
!!!EED:	Jesse Rodin
!!!EEV:	2013/08/10/
!!!ONB:	Translated from MusicXML and edited on 2013/08/10/ by Craig Sapp
!!muse2ps: C^@{COM}^i2I150v85,85,85,150Q16
